public/library/consensus-text-dark.svg

<svg width="205" height="23" viewBox="0 0 205 23" fill="none" xmlns="http://www.w3.org/2000/svg">
<path d="M194.849 22.7734C188.611 22.7734 184.851 20.0084 184.79 15.3199H191.21C191.302 17.1833 192.617 18.2953 194.849 18.2953C197.203 18.2953 198.579 17.4538 198.579 16.0412C198.579 12.074 184.79 17.033 184.79 7.20513C184.79 3.17781 188.489 0.773438 194.727 0.773438C200.994 0.773438 204.725 3.71879 204.786 8.73792H198.365C198.304 6.57398 196.897 5.25158 194.604 5.25158C191.883 5.25158 190.905 6.24338 190.905 7.44557C190.905 11.6833 205 7.56579 205 15.3199C205 20.0084 201.239 22.7734 194.849 22.7734Z" fill="white"/>
<path d="M171.59 22.7737C165.108 22.7737 161.286 18.9868 161.286 12.6152V1.34473H167.707V12.6152C167.707 15.3802 169.144 17.0633 171.59 17.0633C174.006 17.0633 175.443 15.3802 175.443 12.6152V1.34473H181.863V12.6152C181.863 18.9868 178.042 22.7737 171.59 22.7737Z" fill="white"/>
<path d="M148.208 22.7734C141.971 22.7734 138.21 20.0084 138.149 15.3199H144.57C144.662 17.1833 145.976 18.2953 148.208 18.2953C150.563 18.2953 151.939 17.4538 151.939 16.0412C151.939 12.074 138.149 17.033 138.149 7.20513C138.149 3.17781 141.849 0.773438 148.086 0.773438C154.354 0.773438 158.084 3.71879 158.145 8.73792H151.725C151.663 6.57398 150.257 5.25158 147.964 5.25158C145.243 5.25158 144.264 6.24338 144.264 7.44557C144.264 11.6833 158.359 7.56579 158.359 15.3199C158.359 20.0084 154.599 22.7734 148.208 22.7734Z" fill="white"/>
<path d="M114.645 10.9917C114.645 4.62011 118.467 0.863281 124.949 0.863281C131.4 0.863281 135.222 4.62011 135.222 10.9917V22.2922H128.802V10.9917C128.802 8.22667 127.364 6.57367 124.949 6.57367C122.503 6.57367 121.066 8.22667 121.066 10.9917V22.2922H114.645V10.9917Z" fill="white"/>
<path d="M92.9147 1.25488H111.474V5.73303H99.3355V9.51991H110.801V13.9981H99.3355V17.815H111.718V22.2931H92.9147V1.25488Z" fill="white"/>
<path d="M79.8369 22.7734C73.5995 22.7734 69.8387 20.0084 69.7776 15.3199H76.1984C76.2901 17.1833 77.6049 18.2953 79.8369 18.2953C82.1912 18.2953 83.5671 17.4538 83.5671 16.0412C83.5671 12.074 69.7776 17.033 69.7776 7.20513C69.7776 3.17781 73.4772 0.773438 79.7146 0.773438C85.9825 0.773438 89.7127 3.71879 89.7738 8.73792H83.353C83.2919 6.57398 81.8854 5.25158 79.5923 5.25158C76.8711 5.25158 75.8926 6.24338 75.8926 7.44557C75.8926 11.6833 89.9879 7.56579 89.9879 15.3199C89.9879 20.0084 86.2271 22.7734 79.8369 22.7734Z" fill="white"/>
<path d="M46.2736 10.9917C46.2736 4.62011 50.0955 0.863281 56.5774 0.863281C63.0288 0.863281 66.8508 4.62011 66.8508 10.9917V22.2922H60.4299V10.9917C60.4299 8.22667 58.9929 6.57367 56.5774 6.57367C54.1314 6.57367 52.6944 8.22667 52.6944 10.9917V22.2922H46.2736V10.9917Z" fill="white"/>
<path d="M33.2269 22.7731C26.8978 22.7731 23.1371 19.2267 23.1371 13.1857V10.4507C23.1371 4.40973 26.8978 0.863281 33.2269 0.863281C39.5866 0.863281 43.3474 4.40973 43.3474 10.4507V13.1857C43.3474 19.2267 39.5866 22.7731 33.2269 22.7731ZM29.5579 13.1857C29.5579 15.8906 30.9338 17.4835 33.2269 17.4835C35.5507 17.4835 36.9266 15.8906 36.9266 13.1857V10.4507C36.9266 7.7458 35.5507 6.1529 33.2269 6.1529C30.9338 6.1529 29.5579 7.7458 29.5579 10.4507V13.1857Z" fill="white"/>
<path d="M10.0899 22.7731C3.76076 22.7731 0 19.2267 0 13.1857V10.4507C0 4.40973 3.76076 0.863281 10.0899 0.863281C16.4495 0.863281 20.2103 4.40973 20.2103 10.4507H13.7895C13.7895 7.7458 12.4136 6.1529 10.0899 6.1529C7.79671 6.1529 6.42082 7.7458 6.42082 10.4507V13.1857C6.42082 15.8906 7.79671 17.4835 10.0899 17.4835C12.4136 17.4835 13.7895 15.8906 13.7895 13.1857H20.2103C20.2103 19.2267 16.4495 22.7731 10.0899 22.7731Z" fill="white"/>
</svg>

<svg xmlns="http://www.w3.org/2000/svg" width="205" height="23" fill="none" viewBox="0 0 205 23"><path fill="#fff" d="M194.849 22.773c-6.238 0-9.998-2.765-10.059-7.453h6.42c.092 1.863 1.407 2.975 3.639 2.975 2.354 0 3.73-.841 3.73-2.254 0-3.967-13.789.992-13.789-8.836 0-4.027 3.699-6.432 9.937-6.432 6.267 0 9.998 2.946 10.059 7.965h-6.421c-.061-2.164-1.468-3.486-3.761-3.486-2.721 0-3.699.991-3.699 2.194 0 4.237 14.095.12 14.095 7.874 0 4.688-3.761 7.453-10.151 7.453M171.59 22.774c-6.482 0-10.304-3.787-10.304-10.159V1.345h6.421v11.27c0 2.765 1.437 4.448 3.883 4.448 2.416 0 3.853-1.683 3.853-4.448V1.345h6.42v11.27c0 6.372-3.821 10.159-10.273 10.159M148.208 22.773c-6.237 0-9.998-2.765-10.059-7.453h6.421c.092 1.863 1.406 2.975 3.638 2.975 2.355 0 3.731-.841 3.731-2.254 0-3.967-13.79.992-13.79-8.836 0-4.027 3.7-6.432 9.937-6.432 6.268 0 9.998 2.946 10.059 7.965h-6.42c-.062-2.164-1.468-3.486-3.761-3.486-2.721 0-3.7.991-3.7 2.194 0 4.237 14.095.12 14.095 7.874 0 4.688-3.76 7.453-10.151 7.453M114.645 10.992c0-6.372 3.822-10.129 10.304-10.129 6.451 0 10.273 3.757 10.273 10.129v11.3h-6.42v-11.3c0-2.765-1.438-4.418-3.853-4.418-2.446 0-3.883 1.653-3.883 4.418v11.3h-6.421zM92.915 1.255h18.559v4.478H99.335V9.52h11.466v4.478H99.335v3.817h12.383v4.478H92.915zM79.837 22.773c-6.237 0-9.998-2.765-10.06-7.453h6.421c.092 1.863 1.407 2.975 3.639 2.975 2.354 0 3.73-.841 3.73-2.254 0-3.967-13.79.992-13.79-8.836 0-4.027 3.7-6.432 9.938-6.432 6.267 0 9.998 2.946 10.059 7.965h-6.421c-.061-2.164-1.468-3.486-3.76-3.486-2.722 0-3.7.991-3.7 2.194 0 4.237 14.095.12 14.095 7.874 0 4.688-3.76 7.453-10.151 7.453M46.274 10.992C46.274 4.62 50.096.863 56.577.863c6.452 0 10.274 3.757 10.274 10.129v11.3H60.43v-11.3c0-2.765-1.437-4.418-3.853-4.418-2.446 0-3.883 1.653-3.883 4.418v11.3h-6.42zM33.227 22.773c-6.33 0-10.09-3.546-10.09-9.587V10.45c0-6.041 3.76-9.588 10.09-9.588 6.36 0 10.12 3.547 10.12 9.588v2.735c0 6.04-3.76 9.587-10.12 9.587m-3.67-9.587c0 2.705 1.377 4.297 3.67 4.297 2.324 0 3.7-1.592 3.7-4.297V10.45c0-2.705-1.376-4.298-3.7-4.298-2.293 0-3.67 1.593-3.67 4.298zM10.09 22.773C3.76 22.773 0 19.227 0 13.186V10.45C0 4.41 3.76.863 10.09.863c6.36 0 10.12 3.547 10.12 9.588h-6.42c0-2.705-1.376-4.298-3.7-4.298-2.293 0-3.67 1.593-3.67 4.298v2.735c0 2.705 1.377 4.297 3.67 4.297 2.324 0 3.7-1.592 3.7-4.297h6.42c0 6.04-3.76 9.587-10.12 9.587"/></svg>
